X:1
T:Serenity
T:Serenity
T:Public  domain
Z:Public  domain
%%score ( 1 2 ) ( 3 4 )
L:1/8
Q:1/4=100
M:3/4
K:Eb
V:1 treble nm="Unnamed-000"
V:2 treble 
V:3 bass nm="Serenity"
V:4 bass 
V:1
 ([EG]2 | [EG]3 [EG] [EA] [EG] | [GG]3/2 z3 F x/ | [DB]3 [DF] [DG] [DA] | [EG]4) [DB]2 | %5
 [EB]3 [EB] [Ee] [Fd] | [FdEc]3/2 z3 [Ec] x5/2 | [EB]3 E [DG] [DF] | E6 |] %9
V:2
 x2 | x6 | x/ [EE]3/2 x3 E | x6 | x6 | x6 | x8 | x6 | x6 |] %9
V:3
 ([E,B,]2 | [E,B,]3 [E,=B,] [E,C] [E,_B,] | [C,=A,]>[C,A,] [C,A,]3 [C,A,] | %3
 [B,,A,]3 [B,,A,] [B,,B,] [B,,B,] | [E,B,]4) [F,A,]2 | [G,B,]3 [G,B,] [G,B,] [G,=B,] | %6
 =B,>C [A,C]3 [A,,F,] x2 | [B,,G,]3 [B,,G,] [B,,B,] [B,,A,] | [E,G,]6 |] %9
V:4
 x2 | x6 | x6 | x6 | x6 | x6 | x6 A,3/2 A,/ | x6 | x6 |] %9

